X:1
T:Alexander Davidson Esq. of Dresswood
T:Alexander Davidson Esq. of Dresswood
T:Alexander Walker
C:Alexander Walker
L:1/8
M:4/4
K:F
V:1 treble 
V:1
 g | f>F d/c/B/A/ c<FF>a | f>ca>A (G2 G>)g | f>F d/c/B/A/ c<fa>g | f>dc<A (F2 F) :| c | %6
 f>ga>g f<cc>a | b>ga>f d2 d>e | f>ga>g f>cA<F | D<GC>E (F2 F>)c | f>ga>g f>cAF | f>ag>f g<dd>e | %12
 f<af>c d<fc>A | B<dG<c A<F F || %14

